actions/24/snap-nodes-path.svg

<?xml version="1.0" encoding="UTF-8" standalone="no"?>
<svg
   width="24"
   height="24"
   version="1.1"
   id="svg9"
   sodipodi:docname="snap-nodes-path.svg"
   inkscape:version="1.2.1 (9c6d41e410, 2022-07-14, custom)"
   xmlns:inkscape="http://www.inkscape.org/namespaces/inkscape"
   xmlns:sodipodi="http://sodipodi.sourceforge.net/DTD/sodipodi-0.dtd"
   xmlns="http://www.w3.org/2000/svg"
   xmlns:svg="http://www.w3.org/2000/svg">
  <sodipodi:namedview
     id="namedview11"
     pagecolor="#000000"
     bordercolor="#000000"
     borderopacity="0.25"
     inkscape:showpageshadow="2"
     inkscape:pageopacity="0"
     inkscape:pagecheckerboard="0"
     inkscape:deskcolor="#d1d1d1"
     showgrid="false"
     inkscape:zoom="33.458333"
     inkscape:cx="11.985056"
     inkscape:cy="11.955168"
     inkscape:window-width="1920"
     inkscape:window-height="1051"
     inkscape:window-x="0"
     inkscape:window-y="29"
     inkscape:window-maximized="1"
     inkscape:current-layer="g7" />
  <defs
     id="defs3">
    <style
       id="current-color-scheme"
       type="text/css">
   .ColorScheme-Text { color:#eeeeec; } .ColorScheme-Highlight { color:#367bf0; } .ColorScheme-NeutralText { color:#ffcc44; } .ColorScheme-PositiveText { color:#3db47e; } .ColorScheme-NegativeText { color:#dd4747; }
  </style>
  </defs>
  <g
     transform="translate(4,4)"
     id="g7">
    <path
       style="fill:currentColor"
       class="ColorScheme-Text"
       d="M 1.0058594,1.4941406 1.0195312,1.5 C 0.37682684,1.4700579 0.29855614,2.4204885 0.9375,2.4960938 c 0,0 3.6861281,0.5151443 6.2988281,2.1777343 1.3064,0.83131 2.3077407,1.9094125 2.5566407,3.3203125 0.2489802,1.4109 -0.2323675,3.2612124 -2.1796876,5.6953124 -0.2566378,0.323774 -0.03219,0.801445 0.3808594,0.810547 3.6190004,0 5.5703564,-1.334591 6.5351564,-2.712891 0.96,-1.38 0.958984,-2.7910152 0.958984,-2.7910152 0.0096,-0.6761613 -1.009563,-0.6761613 -1,0 0,0 4.4e-5,1.0911902 -0.785156,2.2128902 -0.618289,0.883269 -1.895926,1.688304 -4.0192483,2.01471 -0.2303007,0.0354 -0.063154,-0.162981 -0.3135899,-0.13935 C 9.5060622,12.884631 9.2272923,12.915233 9.3486744,12.719923 10.507042,10.856041 11.005657,9.1964387 10.761719,7.8144531 10.448199,6.0378531 9.2014125,4.7428187 7.7578125,3.8242188 4.8705125,1.9868188 1.0546875,1.5 1.0546875,1.5 c -0.01617,-0.00275 -0.032466,-0.00471 -0.048828,-0.00586 z"
       id="path5"
       sodipodi:nodetypes="cccccccccccscscccc" />
  </g>
</svg>

<svg xmlns="http://www.w3.org/2000/svg" width="24" height="24" version="1.1">
 <defs>
  <style id="current-color-scheme" type="text/css">
   .ColorScheme-Text { color:#eeeeec; } .ColorScheme-Highlight { color:#367bf0; } .ColorScheme-NeutralText { color:#ffcc44; } .ColorScheme-PositiveText { color:#3db47e; } .ColorScheme-NegativeText { color:#dd4747; }
  </style>
 </defs>
 <g transform="translate(4,4)">
  <path style="fill:currentColor" class="ColorScheme-Text" d="M 1.0058594 1.4941406 L 1.0195312 1.5 A 0.50005 0.50005 0 0 0 0.9375 2.4960938 C 0.9375 2.4960938 4.6236281 3.0112381 7.2363281 4.6738281 C 8.5427281 5.5051381 9.5440688 6.5832406 9.7929688 7.9941406 C 10.041949 9.4050406 9.5606013 11.255353 7.6132812 13.689453 A 0.50005 0.50005 0 0 0 7.9941406 14.5 C 11.613141 14.5 13.564497 13.165409 14.529297 11.787109 C 15.489297 10.407109 15.488281 8.9960938 15.488281 8.9960938 A 0.50005 0.50005 0 1 0 14.488281 8.9960938 C 14.488281 8.9960938 14.488325 10.087284 13.703125 11.208984 C 13.017775 12.188054 11.522291 13.071 8.9628906 13.3125 C 10.394391 11.2069 11.031219 9.3412531 10.761719 7.8144531 C 10.448199 6.0378531 9.2014125 4.7428187 7.7578125 3.8242188 C 4.8705125 1.9868188 1.0546875 1.5 1.0546875 1.5 A 0.50005 0.50005 0 0 0 1.0058594 1.4941406 z"/>
 </g>
</svg>
